src/lib/packages/icons/src/assets/filled/bookmark-settings.svg

<svg width="24" height="24" viewBox="0 0 24 24" fill="none" xmlns="http://www.w3.org/2000/svg">
<path d="M13.02 10.5C13.02 11.052 12.573 11.5 12.02 11.5C11.468 11.5 11.0149 11.052 11.0149 10.5C11.0149 9.948 11.458 9.5 12.01 9.5H12.02C12.572 9.5 13.02 9.948 13.02 10.5ZM19 6V21L12 17L5 21V6C5 4 6 3 8 3H16C18 3 19 4 19 6ZM14.7839 10.502C14.7829 10.084 15.012 9.69804 15.385 9.48804L15.501 9.42297L14.699 8.07703L14.584 8.14099C14.21 8.34999 13.75 8.35001 13.377 8.14001C13.006 7.93101 12.7781 7.54598 12.7781 7.13098C12.7781 7.05898 12.7171 7 12.6431 7H11.3091C11.2351 7 11.1741 7.05898 11.1741 7.13098C11.1741 7.54698 10.946 7.93101 10.575 8.14001C10.202 8.35001 9.74192 8.35099 9.36792 8.14099C9.30492 8.10499 9.22401 8.12599 9.18701 8.18799L8.51807 9.31104C8.48107 9.37204 8.50292 9.45106 8.56592 9.48706L8.56812 9.48804C8.93912 9.69704 9.16697 10.081 9.16797 10.496C9.16897 10.914 8.94012 11.301 8.56812 11.511L8.56689 11.512C8.50289 11.548 8.48207 11.627 8.51807 11.688L9.18701 12.8101C9.22401 12.8721 9.3049 12.8931 9.3689 12.8571C9.7419 12.6481 10.202 12.648 10.575 12.858C10.946 13.067 11.1741 13.452 11.1731 13.868C11.1731 13.94 11.2331 13.999 11.3081 13.999H12.644C12.718 13.999 12.7791 13.941 12.7791 13.869C12.7791 13.453 13.0069 13.069 13.3779 12.86C13.7509 12.65 14.211 12.649 14.585 12.859C14.648 12.895 14.7301 12.874 14.7661 12.812L15.4351 11.689C15.4721 11.628 15.45 11.5489 15.387 11.5129L15.386 11.512C15.013 11.303 14.7839 10.918 14.7839 10.502Z" fill="currentColor"/>
</svg>

<svg xmlns="http://www.w3.org/2000/svg" width="24" height="24" fill="none"><path fill="currentColor" d="M13.02 10.5a1 1 0 0 1-1 1 1.005 1.005 0 0 1-1.005-1c0-.552.443-1 .995-1h.01a1 1 0 0 1 1 1ZM19 6v15l-7-4-7 4V6c0-2 1-3 3-3h8c2 0 3 1 3 3Zm-4.216 4.502a1.163 1.163 0 0 1 .601-1.014l.116-.065-.802-1.346-.115.064a1.238 1.238 0 0 1-1.207-.001 1.161 1.161 0 0 1-.599-1.009.134.134 0 0 0-.135-.131H11.31a.134.134 0 0 0-.135.131c0 .416-.228.8-.599 1.009-.373.21-.833.211-1.207.001a.134.134 0 0 0-.181.047l-.669 1.123a.127.127 0 0 0 .048.176l.002.001c.371.209.599.593.6 1.008.001.418-.228.805-.6 1.015l-.001.001a.127.127 0 0 0-.049.176l.669 1.122a.135.135 0 0 0 .182.047 1.236 1.236 0 0 1 1.206.001c.371.209.6.594.598 1.01 0 .072.06.131.135.131h1.336a.133.133 0 0 0 .135-.13c0-.416.228-.8.599-1.009.373-.21.833-.211 1.207-.001a.134.134 0 0 0 .181-.047l.67-1.123a.127.127 0 0 0-.049-.176l-.001-.001a1.16 1.16 0 0 1-.602-1.01Z"/></svg>
